X:33
T:Female Sayler
M:6/8
L:1/8
K:G minor
D3 | "Gm" G2 d d2 c | "Gm" B3 c3 | "Gm" d2 c "D" B2 A | "Gm" B2 A "D" G2 ^F |
"Gm" G2 d d2 c | "Gm" B3 "Cm" c3 | "D" d2 c B2 A | [1 "Gm" G3-G3 :| [2 "Gm" G3-G3 ||
|: "Gm" b2 a g2 ^f | "Gm" g3 "D" d3 | "Gm" b2 a g2 ^f | "Gm" g3 d2 =f | "Cm" e2 c "D" d2 A |
"Gm" B2 G "Eb" B2 c | [1 "Gm" d3 "D" =e2 ^f | "Gm" g3 "D" a3 :| [2 "Gm" d3 "D" A2 G | "Gm" G3-G3 ||
%
%
